__todo__/youtube-icon.svg

<svg height="180" preserveAspectRatio="xMidYMid" viewBox="0 0 256 180" width="256" xmlns="http://www.w3.org/2000/svg"><path d="m250.346231 28.0746923c-2.988098-11.0426365-11.614133-19.66867121-22.65677-22.65676922-19.865718-5.41792308-99.821128-5.41792308-99.821128-5.41792308s-79.9554101.16417949-99.8211281 5.58210256c-11.0426365 2.98809802-19.66867117 11.61413274-22.65676919 22.65676924-6.00896923 35.2985897-8.34031795 89.0837902.16417949 122.9704362 2.98809802 11.042636 11.6141327 19.668671 22.6567692 22.656769 19.865718 5.417923 99.8211286 5.417923 99.8211286 5.417923s79.95541 0 99.821128-5.417923c11.042636-2.988098 19.668671-11.614133 22.656769-22.656769 6.337328-35.347844 8.291064-89.100208-.164179-123.1346157z" fill="#f00"/><path d="m102.420513 128.06 66.328512-38.418-66.328512-38.418z" fill="#fff"/></svg>

<?xml version="1.0" encoding="UTF-8"?>
<svg width="256px" height="180px" viewBox="0 0 256 180" version="1.1" xmlns="http://www.w3.org/2000/svg" xmlns:xlink="http://www.w3.org/1999/xlink" preserveAspectRatio="xMidYMid">
    <g>
				<path d="M250.346231,28.0746923 C247.358133,17.0320558 238.732098,8.40602109 227.689461,5.41792308 C207.823743,0 127.868333,0 127.868333,0 C127.868333,0 47.9129229,0.164179487 28.0472049,5.58210256 C17.0045684,8.57020058 8.37853373,17.1962353 5.39043571,28.2388718 C-0.618533519,63.5374615 -2.94988224,117.322662 5.5546152,151.209308 C8.54271322,162.251944 17.1687479,170.877979 28.2113844,173.866077 C48.0771024,179.284 128.032513,179.284 128.032513,179.284 C128.032513,179.284 207.987923,179.284 227.853641,173.866077 C238.896277,170.877979 247.522312,162.251944 250.51041,151.209308 C256.847738,115.861464 258.801474,62.1091 250.346231,28.0746923 Z" fill="#FF0000"></path>
				<polygon fill="#FFFFFF" points="102.420513 128.06 168.749025 89.642 102.420513 51.224"></polygon>
		</g>
</svg>
